public/livestock/milk.svg

<svg fill="none" height="178" viewBox="0 0 178 178" width="178" xmlns="http://www.w3.org/2000/svg" xmlns:xlink="http://www.w3.org/1999/xlink"><clipPath id="a"><path d="m64 25h49.3877v128.38h-49.3877z"/></clipPath><circle cx="89" cy="89" fill="#fdb98d" r="89"/><g clip-path="url(#a)"><path d="m85.7369 27.9568v10.9982l-21.7369 21.7369h5.8834l18.8308-18.8308.0662.0661v-16.9274h-.0662c-.39-.0027-.7767.0718-1.1378.2192s-.6895.3648-.9663.6397c-.2767.2748-.4963.6017-.6462.9618s-.227.7462-.227 1.1363z" fill="#fffac2"/><path d="m88.6938 41.8813-18.8308 18.8309h-5.863v87.5888c0 1.35.5362 2.644 1.4907 3.599.9544.954 2.2489 1.49 3.5987 1.49h19.6706v-111.4425z" fill="#016099"/><path d="m107.504 60.6918h5.863l-21.7164-21.7369v-10.9982c.0001-.7729-.3023-1.5152-.8426-2.0678-.5403-.5527-1.2755-.8719-2.0482-.8891v16.9477z" fill="#00bcb4"/><path d="m107.504 60.6921-18.7442-18.7443v111.4582h19.5482c1.35 0 2.645-.536 3.599-1.491.954-.954 1.491-2.249 1.491-3.598v-87.6249z" fill="#3d113c"/><path d="m81.3301 43.364-9.9578 9.9578-3.0445-3.0446c-.3713-.3713-.5799-.8748-.5799-1.3999s.2086-1.0286.5799-1.3999l7.1399-7.1399c.3713-.3713.8748-.5799 1.3999-.5799s1.0287.2086 1.3999.5799l3.0446 3.0445z" fill="#00bcb4"/><path d="m102.374 93.0859c-.027-.3189-.066-.6344-.117-.9466-.315-1.9458-1.042-3.8017-2.135-5.4425-1.0917-1.6409-2.5228-3.0286-4.1965-4.0696-.1861.037-.3753.0558-.565.056h-1.1349v10.5758c-.004.7959-.3234 1.5579-.8882 2.1188-.5647.5609-1.3288.8751-2.1247.8738h-2.5447v5.4664h.0305c2.705.004 5.3702-.652 7.7646-1.9104 2.3945-1.2584 4.4459-3.0817 5.9769-5.3119v-.2087c-.015-.3969-.031-.799-.066-1.2011z" fill="#016099"/><path d="m88.6934 68.4126c-3.0378-.0049-6.0191.8212-8.6212 2.3889-2.602 1.5678-4.7256 3.8174-6.1409 6.5054s-2.0683 5.7119-1.8884 8.7444 1.1859 5.958 2.9091 8.4598v-.2086c-.0061-1.2746.1652-2.5439.5089-3.7713.0356-.1323.0763-.2646.1171-.3919.997-3.1182 3.0719-5.7794 5.8528-7.5069.186.0371.3752.0558.5649.056h1.14v10.5758c.0027.3959.0835.7873.2377 1.1519.1543.3646.379.6951.6613.9727.2823.2775.6166.4966.9837.6447s.7599.2222 1.1557.2182h5.0436c.7978 0 1.5628-.3169 2.1269-.881.5641-.564.881-1.3291.881-2.1268v-10.5606h1.14c.1897-.0002.3789-.0189.5649-.0559 1.676 1.0385 3.1088 2.4254 4.2015 4.0667 1.092 1.6413 1.819 3.4985 2.13 5.4454.051.3121.09.6277.117.9466.035.4021.056.8041.056 1.2164v.2086c1.754-2.543 2.762-5.5256 2.911-8.6112 0-.2749 0-.5514 0-.8296-.001-4.4166-1.756-8.652-4.879-11.7755-3.1222-3.1235-7.357-4.8795-11.7736-4.8822z" fill="#fffac2"/><path d="m86.1734 96.2516c-.395 0-.7861-.0778-1.151-.229s-.6965-.3727-.9758-.652-.5009-.6109-.6521-.9758c-.1511-.365-.2289-.7561-.2289-1.1511v-10.5605h-1.14c-.1897-.0002-.3789-.019-.565-.056-2.7847 1.729-4.8616 4.3943-5.8579 7.5171-.0407.1323-.0814.2595-.117.3918-.3438 1.2274-.5151 2.4967-.509 3.7713v.2087c1.1581 1.6756 2.612 3.1261 4.2904 4.2802 2.3106 1.5877 4.9863 2.5627 7.7766 2.8347.5293.051 1.0671.078 1.6134.082v-5.4614z" fill="#00bcb4"/><path d="m94.227 79.7822h-.0102v.0461h.0102z" fill="#b3b3b3"/><path d="m95.8554 79.7823v-5.466c0-.4347-.1727-.8515-.48-1.1588-.3073-.3074-.7242-.48-1.1588-.48v4.9723h-5.5525v18.6019h2.5447c.395 0 .7861-.0778 1.151-.229.365-.1512.6965-.3727.9758-.652s.5009-.6109.6521-.9758c.1511-.365.2289-.7561.2289-1.1511v-10.5605h1.14c.381 0 .7582-.0751 1.1102-.2208.352-.1458.6718-.3595.9411-.6289.2694-.2694.4831-.5892.6289-.9411.1458-.352.2208-.7292.2208-1.1102z" fill="#3d113c"/><path d="m86.4283 77.6497h-3.2572v-4.9927c-.4347 0-.8515.1726-1.1588.48-.3073.3073-.48.7241-.48 1.1588v5.4864h-2.4073c0 .3809.075.7582.2208 1.1101.1458.352.3595.6718.6289.9412.2694.2693.5892.483.9411.6288.352.1458.7292.2208 1.1102.2208h1.14v10.5758c.004.7951.3227 1.5563.8864 2.117.5636.5608 1.3263.8756 2.1214.8756h2.4888v-18.6018z" fill="#016099"/></g></svg>

<svg width="178" height="178" viewBox="0 0 178 178" fill="none" xmlns="http://www.w3.org/2000/svg">
<circle cx="89" cy="89" r="89" fill="#FDB98D"/>
<g clip-path="url(#clip0_2833_6901)">
<path d="M85.7369 27.9568V38.955L64 60.6919H69.8834L88.7142 41.8611L88.7804 41.9272V24.9998H88.7142C88.3242 24.9971 87.9375 25.0716 87.5764 25.219C87.2153 25.3664 86.8869 25.5838 86.6101 25.8587C86.3334 26.1335 86.1138 26.4604 85.9639 26.8205C85.814 27.1806 85.7369 27.5667 85.7369 27.9568V27.9568Z" fill="#FFFAC2"/>
<path d="M88.6938 41.8813L69.863 60.7122H64V148.301C64 149.651 64.5362 150.945 65.4907 151.9C66.4451 152.854 67.7396 153.39 69.0894 153.39H88.76V41.9475L88.6938 41.8813Z" fill="#016099"/>
<path d="M107.504 60.6918H113.367L91.6506 38.9549V27.9567C91.6507 27.1838 91.3483 26.4415 90.808 25.8889C90.2677 25.3362 89.5325 25.017 88.7598 24.9998V41.9475L107.504 60.6918Z" fill="#00BCB4"/>
<path d="M107.504 60.6921L88.7598 41.9478V153.406H108.308C109.658 153.406 110.953 152.87 111.907 151.915C112.861 150.961 113.398 149.666 113.398 148.317V60.6921H107.504Z" fill="#3D113C"/>
<path d="M81.3301 43.364L71.3723 53.3218L68.3278 50.2772C67.9565 49.9059 67.7479 49.4024 67.7479 48.8773C67.7479 48.3522 67.9565 47.8487 68.3278 47.4774L75.4677 40.3375C75.839 39.9662 76.3425 39.7576 76.8676 39.7576C77.3927 39.7576 77.8963 39.9662 78.2675 40.3375L81.3121 43.382L81.3301 43.364Z" fill="#00BCB4"/>
<path d="M102.374 93.0859C102.347 92.767 102.308 92.4515 102.257 92.1393C101.942 90.1935 101.215 88.3376 100.122 86.6968C99.0303 85.0559 97.5992 83.6682 95.9255 82.6272C95.7394 82.6642 95.5502 82.683 95.3605 82.6832H94.2256V93.259C94.2216 94.0549 93.9022 94.8169 93.3374 95.3778C92.7727 95.9387 92.0086 96.2529 91.2127 96.2516H88.668V101.718H88.6985C91.4035 101.722 94.0687 101.066 96.4631 99.8076C98.8576 98.5492 100.909 96.7259 102.44 94.4957V94.287C102.425 93.8901 102.409 93.488 102.374 93.0859Z" fill="#016099"/>
<path d="M88.6934 68.4126C85.6556 68.4077 82.6743 69.2338 80.0722 70.8015C77.4702 72.3693 75.3466 74.6189 73.9313 77.3069C72.516 79.9949 71.863 83.0188 72.0429 86.0513C72.2228 89.0838 73.2288 92.0093 74.952 94.5111V94.3025C74.9459 93.0279 75.1172 91.7586 75.4609 90.5312C75.4965 90.3989 75.5372 90.2666 75.578 90.1393C76.575 87.0211 78.6499 84.3599 81.4308 82.6324C81.6168 82.6695 81.806 82.6882 81.9957 82.6884H83.1357V93.2642C83.1384 93.6601 83.2192 94.0515 83.3734 94.4161C83.5277 94.7807 83.7524 95.1112 84.0347 95.3888C84.317 95.6663 84.6513 95.8854 85.0184 96.0335C85.3855 96.1816 85.7783 96.2557 86.1741 96.2517H91.2177C92.0155 96.2517 92.7805 95.9348 93.3446 95.3707C93.9087 94.8067 94.2256 94.0416 94.2256 93.2439V82.6833H95.3656C95.5553 82.6831 95.7445 82.6644 95.9305 82.6274C97.6065 83.6659 99.0393 85.0528 100.132 86.6941C101.224 88.3354 101.951 90.1926 102.262 92.1395C102.313 92.4516 102.352 92.7672 102.379 93.0861C102.414 93.4882 102.435 93.8902 102.435 94.3025V94.5111C104.189 91.9681 105.197 88.9855 105.346 85.8999C105.346 85.625 105.346 85.3485 105.346 85.0703C105.345 80.6537 103.59 76.4183 100.467 73.2948C97.3448 70.1713 93.11 68.4153 88.6934 68.4126V68.4126Z" fill="#FFFAC2"/>
<path d="M86.1734 96.2516C85.7784 96.2516 85.3873 96.1738 85.0224 96.0226C84.6575 95.8714 84.3259 95.6499 84.0466 95.3706C83.7673 95.0913 83.5457 94.7597 83.3945 94.3948C83.2434 94.0298 83.1656 93.6387 83.1656 93.2437V82.6832H82.0256C81.8359 82.683 81.6467 82.6642 81.4606 82.6272C78.6759 84.3562 76.599 87.0215 75.6027 90.1443C75.562 90.2766 75.5213 90.4038 75.4857 90.5361C75.1419 91.7635 74.9706 93.0328 74.9767 94.3074V94.5161C76.1348 96.1917 77.5887 97.6422 79.2671 98.7963C81.5777 100.384 84.2534 101.359 87.0437 101.631C87.573 101.682 88.1108 101.709 88.6571 101.713V96.2516H86.1734Z" fill="#00BCB4"/>
<path d="M94.227 79.7822H94.2168V79.8283H94.227V79.7822Z" fill="#B3B3B3"/>
<path d="M95.8554 79.7823V74.3163C95.8554 73.8816 95.6827 73.4648 95.3754 73.1575C95.0681 72.8501 94.6512 72.6775 94.2166 72.6775V77.6498H88.6641V96.2517H91.2088C91.6038 96.2517 91.9949 96.1739 92.3598 96.0227C92.7248 95.8715 93.0563 95.65 93.3356 95.3707C93.6149 95.0914 93.8365 94.7598 93.9877 94.3949C94.1388 94.0299 94.2166 93.6388 94.2166 93.2438V82.6833H95.3566C95.7376 82.6833 96.1148 82.6082 96.4668 82.4625C96.8188 82.3167 97.1386 82.103 97.4079 81.8336C97.6773 81.5642 97.891 81.2444 98.0368 80.8925C98.1826 80.5405 98.2576 80.1633 98.2576 79.7823H95.8554Z" fill="#3D113C"/>
<path d="M86.4283 77.6497H83.1711V72.657C82.7364 72.657 82.3196 72.8296 82.0123 73.137C81.705 73.4443 81.5323 73.8611 81.5323 74.2958V79.7822H79.125C79.125 80.1631 79.2 80.5404 79.3458 80.8923C79.4916 81.2443 79.7053 81.5641 79.9747 81.8335C80.2441 82.1028 80.5639 82.3165 80.9158 82.4623C81.2678 82.6081 81.645 82.6831 82.026 82.6831H83.166V93.2589C83.17 94.054 83.4887 94.8152 84.0524 95.3759C84.616 95.9367 85.3787 96.2515 86.1738 96.2515H88.6626V77.6497H86.4283Z" fill="#016099"/>
</g>
<defs>
<clipPath id="clip0_2833_6901">
<rect width="49.3877" height="128.38" fill="white" transform="translate(64 25)"/>
</clipPath>
</defs>
</svg>
